X: 11420
T: Easter Island
R: reel
M: 4/4
K: Dmajor
|:f3 a efed|efdB BBfe|e2 BA BBfe|e2 BA BABc|
d2 BA BBfe|d2 BA A2 ed|efef fa f/e/d|e2 ed effe:|e2 ed efdc||
|:d3 B AAAB|ddde f2 ed|f2 fe fa f/e/d|e3 d efdc|
d3 B AAAB|ddde f2 ed|f2 fe fa f/e/d|e3 d efdc:|e2 ed effe||

